X: 197
T: Whiskey on a Sunday
M:3/4
R:waltz
L:1/8
Z:Alf Warnock - alf0@rogers.com
K:C
G2| "C"G2 g3f|e2 d2 c2| "Dm"d3e d2| A4 c2|
"G7"B3B B2| B2 c2 d2| "C"G6-|G4 G2|
G2 g3f|e2 d2 c2| "Dm"d2 e3d|A4 c2|
"G7"B2 B3B|B2 c2 d2| "C"c6-|c6|
"A7"z6|e4 f2| "D7"e2 d4-|d6|
"G7"G2 d3d|d2 e2 d2| "C"d2 c4-|c8|
e3e|e2 f2 e2| "D7"d4 c2| A4 A2|
"G7"G4 d2| e4 d2| "C"d2 c4-|c6|]

